svg/l/AI.svg

<svg width="32" height="24" viewBox="0 0 32 24" fill="none" xmlns="http://www.w3.org/2000/svg">
<g clip-path="url(#clip0_270_67318)">
<rect width="32" height="24" fill="white"/>
<path fill-rule="evenodd" clip-rule="evenodd" d="M0 0V24H32V0H0Z" fill="#2E42A5"/>
<mask id="mask0_270_67318" style="mask-type:luminance" maskUnits="userSpaceOnUse" x="0" y="0" width="32" height="24">
<path fill-rule="evenodd" clip-rule="evenodd" d="M0 0V24H32V0H0Z" fill="white"/>
</mask>
<g mask="url(#mask0_270_67318)">
<path fill-rule="evenodd" clip-rule="evenodd" d="M20.943 11.8562L20.9462 12.2066C20.9731 15.1566 21.0819 17.0865 21.2756 18.011C21.4364 18.7787 22.0208 20.0518 22.7082 21.0726C23.5724 22.3561 24.4945 23.1368 25.377 23.1368C26.2627 23.1368 27.1855 22.4108 28.046 21.2011C28.7524 20.2082 29.3573 18.9486 29.5981 18.0204C29.8963 16.8714 30.0352 14.9356 30.0183 12.2035L30.0162 11.8556L29.6983 12.0202C29.0576 12.3518 28.3678 12.5174 27.6257 12.5174C26.8922 12.5174 26.1843 12.2982 25.4977 11.8563L25.3799 11.7805L25.2605 11.8537C24.5359 12.2979 23.855 12.5174 23.2168 12.5174C22.5705 12.5174 21.9205 12.3521 21.2646 12.0194L20.943 11.8562ZM21.4886 17.9695C21.2986 17.0627 21.1902 15.1411 21.1635 12.2048C21.8495 12.5529 22.534 12.7269 23.2168 12.7269C23.8997 12.7269 24.6197 12.4948 25.377 12.0306C26.0984 12.4948 26.8479 12.7269 27.6257 12.7269C28.4035 12.7269 29.1286 12.5529 29.801 12.2048C29.8178 14.9205 29.6799 16.842 29.3874 17.9695C28.9485 19.6607 27.1083 22.9273 25.377 22.9273C23.6458 22.9273 21.7735 19.3297 21.4886 17.9695Z" fill="#FBE625"/>
<path fill-rule="evenodd" clip-rule="evenodd" d="M21.1635 12.2048C21.1635 12.2048 21.2036 16.6093 21.4886 17.9695C21.7735 19.3297 23.6458 22.9273 25.377 22.9273C27.1083 22.9273 28.9485 19.6607 29.3873 17.9695C29.8262 16.2783 29.801 12.2048 29.801 12.2048C29.801 12.2048 28.7923 12.7269 27.6257 12.7269C26.459 12.7269 25.377 12.0306 25.377 12.0306C25.377 12.0306 24.2411 12.7269 23.2168 12.7269C22.1926 12.7269 21.1635 12.2048 21.1635 12.2048Z" fill="#F5FBFF"/>
<mask id="mask1_270_67318" style="mask-type:luminance" maskUnits="userSpaceOnUse" x="21" y="12" width="9" height="11">
<path fill-rule="evenodd" clip-rule="evenodd" d="M21.1635 12.2048C21.1635 12.2048 21.2036 16.6093 21.4886 17.9695C21.7735 19.3297 23.6458 22.9273 25.377 22.9273C27.1083 22.9273 28.9485 19.6607 29.3873 17.9695C29.8262 16.2783 29.801 12.2048 29.801 12.2048C29.801 12.2048 28.7923 12.7269 27.6257 12.7269C26.459 12.7269 25.377 12.0306 25.377 12.0306C25.377 12.0306 24.2411 12.7269 23.2168 12.7269C22.1926 12.7269 21.1635 12.2048 21.1635 12.2048Z" fill="white"/>
</mask>
<g mask="url(#mask1_270_67318)">
<path fill-rule="evenodd" clip-rule="evenodd" d="M24.6398 15.4882C24.6398 15.7759 24.2288 16.6134 23.9906 16.8277C23.8144 16.9863 23.8688 16.6178 23.909 16.3458L23.909 16.3458C23.9231 16.2503 23.9354 16.1668 23.9354 16.122L23.9355 16.1024C23.9355 16.0459 23.9355 16.0151 23.9299 15.9854C23.9231 15.9499 23.9082 15.9158 23.8753 15.8411L23.8753 15.8411C23.863 15.813 23.8482 15.7793 23.8303 15.7375C23.4488 14.9237 23.7187 14.5339 23.8386 14.3608C23.857 14.3343 23.8718 14.3129 23.8802 14.2958C23.8983 14.2592 23.9324 14.2263 23.9705 14.1897C24.0662 14.0973 24.187 13.9808 24.1415 13.7195C24.0778 13.3543 24.4639 12.8859 24.4639 12.8859C24.4639 12.8859 24.3702 13.7943 24.814 13.5718C25.1024 13.4271 25.6251 13.6347 26.09 13.8193C26.3403 13.9187 26.5739 14.0114 26.7452 14.0389C27.091 14.0945 27.2804 13.9493 27.3977 13.8594C27.4463 13.8221 27.4825 13.7943 27.5123 13.7943C27.6139 13.7943 27.7339 13.8147 27.7339 13.8889C27.7339 13.9632 27.2785 14.1805 27.0495 14.2483C26.8769 14.2993 27.054 14.4401 27.2024 14.5581C27.2509 14.5967 27.2963 14.6328 27.3254 14.6625C27.4437 14.7832 27.552 15.4416 27.2785 15.0274C27.0049 14.6133 26.4227 14.3364 25.9278 14.2958C25.4329 14.2553 24.8088 14.6309 24.7339 15.0274C24.659 15.4239 25.3193 15.3513 25.3193 15.3513C25.3193 15.3513 25.2711 15.4131 25.0581 15.4882C24.8452 15.5634 24.6398 15.4882 24.6398 15.4882ZM24.1419 15.4571C24.1419 15.515 24.0933 15.5619 24.0333 15.5619C23.9733 15.5619 23.9247 15.515 23.9247 15.4571C23.9247 15.3992 23.9733 15.3523 24.0333 15.3523C24.0933 15.3523 24.1419 15.3992 24.1419 15.4571ZM26.582 17.401C26.2791 17.2966 25.3474 17.3431 25.0957 17.4826C25.0957 17.4826 25.0619 17.2666 24.8929 17.1167C24.724 16.9669 24.6465 16.9547 24.6465 16.9547C24.6465 16.9547 25.0302 17.497 24.6471 17.6237C24.264 17.7504 23.6329 17.3867 23.4284 16.9342C23.224 16.4817 23.1839 15.8382 23.4135 15.3982C23.6431 14.9582 23.1198 15.3721 23.0715 15.534C23.0597 15.5739 23.0501 15.6312 23.0399 15.6923C23.0086 15.8792 22.9713 16.1024 22.843 15.9762C22.6727 15.8088 22.2619 15.5158 22.1969 15.5518C22.132 15.5878 22.1723 15.7026 22.2216 15.7915C22.2361 15.8176 22.2779 15.8358 22.3341 15.8602C22.4695 15.9192 22.6884 16.0144 22.8075 16.3439C22.8664 16.507 22.8985 16.7562 22.933 17.0234C22.9969 17.5195 23.0688 18.0772 23.3351 18.2594C23.7449 18.5396 22.905 18.8981 22.905 18.8981C22.905 18.8981 23.5018 19.0087 23.7904 18.776C23.9968 18.6094 24.1573 18.6586 24.2845 18.6976L24.2845 18.6976C24.335 18.7131 24.3803 18.727 24.4211 18.725C24.4401 18.7241 24.4661 18.7267 24.4981 18.7299C24.7076 18.7509 25.1794 18.798 25.7062 18.0698C25.7341 18.0339 25.7564 18.0046 25.775 17.9802L25.775 17.9802C25.8245 17.9152 25.847 17.8856 25.8748 17.8625C25.898 17.8431 25.925 17.8282 25.9744 17.8009L25.9916 17.7914C26.0307 17.7697 26.1098 17.74 26.2001 17.706L26.2001 17.706L26.2001 17.706C26.4575 17.6093 26.8062 17.4783 26.582 17.401ZM25.3287 17.8816C25.3793 17.8535 25.4439 17.8734 25.473 17.9258C25.5021 17.9783 25.4847 18.0436 25.4341 18.0716C25.3835 18.0997 25.3189 18.0799 25.2898 18.0274C25.2607 17.9749 25.2781 17.9096 25.3287 17.8816ZM25.8417 14.8742C25.9192 15.1851 26.4656 15.9412 26.7196 16.0763C26.7196 16.0763 26.5569 16.2223 26.5233 16.4456C26.4896 16.6689 26.5216 16.7406 26.5216 16.7406C26.5216 16.7406 26.7674 16.1234 27.0823 16.3757C27.3972 16.628 27.436 17.3553 27.1678 17.7733C26.8997 18.1912 26.3818 18.5753 25.8877 18.6224C25.3936 18.6695 26.0258 18.8829 26.1879 18.8352C26.2278 18.8234 26.281 18.8003 26.3379 18.7755C26.5116 18.6999 26.7191 18.6097 26.6832 18.786C26.6355 19.02 26.6136 19.5242 26.6791 19.559C26.7447 19.5939 26.819 19.4975 26.8667 19.4077C26.8807 19.3814 26.8732 19.3364 26.8631 19.276C26.8388 19.1303 26.7994 18.8949 27.0109 18.6156C27.1156 18.4773 27.3071 18.3146 27.5124 18.1403C27.8937 17.8164 28.3223 17.4524 28.33 17.1298C28.3418 16.6335 29.0999 17.1427 29.0999 17.1427C29.0999 17.1427 28.8676 16.5819 28.5153 16.4666C28.2632 16.3842 28.217 16.2228 28.1804 16.0949C28.1659 16.0441 28.1529 15.9986 28.1291 15.9654C28.1179 15.9499 28.106 15.9268 28.0912 15.8981C27.9947 15.711 27.7773 15.2897 26.8796 15.2445C26.8343 15.2406 26.7975 15.2379 26.767 15.2356C26.6856 15.2295 26.6485 15.2267 26.6139 15.216C26.585 15.2071 26.5579 15.1926 26.508 15.166C26.5025 15.1631 26.4968 15.16 26.4907 15.1568C26.4512 15.1358 26.3832 15.0856 26.3055 15.0284L26.3055 15.0284C26.0842 14.8652 25.7845 14.6441 25.8417 14.8742ZM26.9619 15.7033C26.9108 15.6762 26.8922 15.6112 26.9204 15.5582C26.9485 15.5052 27.0128 15.4843 27.0639 15.5115C27.1149 15.5386 27.1335 15.6036 27.1054 15.6566C27.0772 15.7096 27.0129 15.7305 26.9619 15.7033Z" fill="#FF9800"/>
<path fill-rule="evenodd" clip-rule="evenodd" d="M21.4259 19.7524H28.7049V23.2095H21.4259V19.7524Z" fill="#36C6FF"/>
</g>
<g clip-path="url(#clip1_270_67318)">
<rect width="18" height="14" fill="#2E42A5"/>
<path d="M-2.00427 12.9998L1.95668 14.737L18.0899 1.88872L20.1792 -0.69281L15.9435 -1.27343L9.36317 4.26326L4.06667 7.99369L-2.00427 12.9998Z" fill="#F7FCFF"/>
<path d="M-1.46204 14.2169L0.555885 15.225L19.4289 -0.932678H16.5955L-1.46204 14.2169Z" fill="#F50100"/>
<path d="M20.0043 12.9998L16.0433 14.737L-0.0898743 1.88872L-2.17919 -0.69281L2.05648 -1.27343L8.63683 4.26326L13.9333 7.99369L20.0043 12.9998Z" fill="#F7FCFF"/>
<path d="M19.8691 13.8733L17.8512 14.8815L9.81489 7.96351L7.43229 7.19059L-2.3802 -0.683947H0.453194L10.2602 7.00368L12.8651 7.9305L19.8691 13.8733Z" fill="#F50100"/>
<path fill-rule="evenodd" clip-rule="evenodd" d="M9.98451 0H7.98451V6H0V8H7.98451V14H9.98451V8H18V6H9.98451V0Z" fill="#F50100"/>
<path fill-rule="evenodd" clip-rule="evenodd" d="M6.48451 0H11.4845V4.5H18V9.5H11.4845L11.5 14H6.5L6.48451 9.5H0V4.5H6.48451V0ZM7.98451 6H0V8H7.98451V14H9.98451V8H18V6H9.98451V0H7.98451V6Z" fill="#F7FCFF"/>
</g>
</g>
</g>
<defs>
<clipPath id="clip0_270_67318">
<rect width="32" height="24" fill="white"/>
</clipPath>
<clipPath id="clip1_270_67318">
<rect width="18" height="14" fill="white"/>
</clipPath>
</defs>
</svg>

<svg width="32" height="24" fill="none" xmlns="http://www.w3.org/2000/svg">
  <mask id="a" maskUnits="userSpaceOnUse" x="0" y="0" width="32" height="24">
    <path fill="#fff" d="M0 0h32v24H0z"/>
  </mask>
  <g mask="url(#a)">
    <path fill-rule="evenodd" clip-rule="evenodd" d="M0 0v24h32V0H0z" fill="#2E42A5"/>
    <mask id="b" maskUnits="userSpaceOnUse" x="0" y="0" width="32" height="24">
      <path fill-rule="evenodd" clip-rule="evenodd" d="M0 0v24h32V0H0z" fill="#fff"/>
    </mask>
    <g mask="url(#b)">
      <path fill-rule="evenodd" clip-rule="evenodd" d="M20.943 11.856l.003.35c.027 2.95.136 4.88.33 5.805.16.768.745 2.04 1.432 3.062.864 1.283 1.787 2.064 2.669 2.064.886 0 1.809-.726 2.669-1.936.706-.993 1.311-2.252 1.552-3.18.298-1.15.437-3.085.42-5.818l-.002-.347-.318.164a4.44 4.44 0 01-2.072.497c-.734 0-1.442-.219-2.128-.66l-.118-.076-.12.073c-.724.444-1.405.663-2.043.663-.646 0-1.296-.165-1.952-.498l-.322-.163zm.546 6.114c-.19-.907-.299-2.829-.326-5.765.686.348 1.371.522 2.054.522.683 0 1.403-.232 2.16-.696.721.464 1.47.696 2.249.696.777 0 1.503-.174 2.175-.522.017 2.716-.121 4.637-.414 5.764-.439 1.692-2.279 4.958-4.01 4.958-1.731 0-3.604-3.597-3.888-4.957z" fill="#FBE625"/>
      <path fill-rule="evenodd" clip-rule="evenodd" d="M21.163 12.205s.04 4.404.326 5.764c.284 1.36 2.157 4.958 3.888 4.958 1.731 0 3.572-3.266 4.01-4.957.44-1.692.414-5.765.414-5.765s-1.009.522-2.175.522c-1.167 0-2.249-.696-2.249-.696s-1.136.696-2.16.696c-1.024 0-2.053-.522-2.053-.522z" fill="#F5FBFF"/>
      <mask id="c" maskUnits="userSpaceOnUse" x="21" y="12" width="9" height="11">
        <path fill-rule="evenodd" clip-rule="evenodd" d="M21.163 12.205s.04 4.404.326 5.764c.284 1.36 2.157 4.958 3.888 4.958 1.731 0 3.572-3.266 4.01-4.957.44-1.692.414-5.765.414-5.765s-1.009.522-2.175.522c-1.167 0-2.249-.696-2.249-.696s-1.136.696-2.16.696c-1.024 0-2.053-.522-2.053-.522z" fill="#fff"/>
      </mask>
      <g mask="url(#c)" fill-rule="evenodd" clip-rule="evenodd">
        <path d="M24.64 15.488c0 .288-.411 1.125-.65 1.34-.176.158-.121-.21-.081-.482.014-.096.026-.18.026-.224v-.02c0-.056 0-.087-.005-.117a.718.718 0 00-.055-.144l-.045-.103c-.381-.814-.111-1.204.009-1.377a.582.582 0 00.041-.065.426.426 0 01.09-.106c.096-.093.217-.21.172-.47-.064-.366.322-.834.322-.834s-.094.908.35.686c.288-.145.811.063 1.276.247.25.1.484.192.655.22.346.056.535-.09.653-.18.048-.037.085-.065.114-.065.102 0 .222.02.222.095 0 .074-.456.292-.685.36-.172.05.005.191.153.31.049.038.094.074.123.104.119.12.227.779-.046.364-.274-.414-.856-.69-1.351-.731-.495-.04-1.12.335-1.194.731-.075.397.585.324.585.324s-.048.062-.26.137c-.214.075-.42 0-.42 0zm-.498-.03a.107.107 0 01-.109.104.107.107 0 01-.108-.105c0-.058.048-.105.108-.105s.109.047.109.105zm2.44 1.943c-.303-.104-1.235-.058-1.486.082 0 0-.034-.216-.203-.366s-.247-.162-.247-.162.384.542.001.669c-.383.126-1.014-.237-1.219-.69-.204-.452-.244-1.096-.015-1.536.23-.44-.293-.026-.341.136-.012.04-.022.097-.032.158-.031.187-.069.41-.197.284-.17-.167-.581-.46-.646-.424-.065.036-.025.15.025.24.014.026.056.044.112.068.136.06.354.154.474.484.058.163.09.412.125.68.064.495.136 1.053.402 1.235.41.28-.43.64-.43.64s.597.11.885-.123c.207-.167.367-.117.495-.078.05.015.095.029.136.027.02 0 .045.002.077.005.21.02.681.068 1.208-.66l.069-.09c.05-.065.072-.094.1-.117a.543.543 0 01.1-.062l.017-.01a2.25 2.25 0 01.208-.085c.258-.097.606-.228.382-.305zm-1.253.48a.107.107 0 01.144.045.107.107 0 01-.039.146.107.107 0 01-.144-.045.107.107 0 01.039-.145zm.513-3.007c.077.311.624 1.067.878 1.202 0 0-.163.146-.197.37-.033.223-.001.295-.001.295s.245-.618.56-.365c.315.252.354.98.086 1.397-.268.418-.786.802-1.28.85-.494.046.138.26.3.212.04-.012.093-.035.15-.06.174-.075.381-.165.345.011-.047.234-.07.738-.004.773.066.035.14-.062.188-.151.014-.027.006-.072-.004-.132-.024-.146-.064-.381.148-.66.105-.139.296-.301.501-.476.382-.324.81-.688.818-1.01.012-.496.77.013.77.013s-.232-.561-.585-.676c-.252-.083-.298-.244-.335-.372a.428.428 0 00-.05-.13.443.443 0 01-.039-.067c-.096-.187-.314-.608-1.211-.653l-.113-.01a.72.72 0 01-.153-.019.609.609 0 01-.106-.05l-.017-.01a1.69 1.69 0 01-.186-.128c-.22-.163-.52-.384-.463-.154zm1.12.83a.107.107 0 01-.042-.146.107.107 0 01.144-.046c.05.027.07.092.041.145a.107.107 0 01-.143.046z" fill="#FF9800"/>
        <path d="M21.426 19.752h7.279v3.457h-7.28v-3.457z" fill="#36C6FF"/>
      </g>
      <path fill="#2B409A" d="M0 0h18v14H0z"/>
      <mask id="d" maskUnits="userSpaceOnUse" x="0" y="0" width="18" height="14">
        <path fill="#fff" d="M0 0h18v14H0z"/>
      </mask>
      <g mask="url(#d)">
        <path d="M-2.004 13l3.96 1.737L18.09 1.889l2.09-2.582-4.236-.58-6.58 5.536-5.297 3.73L-2.004 13z" fill="#F7FCFF"/>
        <path d="M-1.462 14.217l2.018 1.008L19.429-.933h-2.833l-18.058 15.15z" fill="#F50100"/>
        <path d="M20.004 13l-3.96 1.737L-.09 1.889-2.18-.693l4.236-.58 6.58 5.536 5.297 3.73L20.004 13z" fill="#F7FCFF"/>
        <path d="M19.87 13.873l-2.019 1.009-8.036-6.918-2.383-.773L-2.38-.684H.453l9.807 7.688 2.605.927 7.004 5.942z" fill="#F50100"/>
        <mask id="e" maskUnits="userSpaceOnUse" x="-2" y="-2" width="22" height="18" fill="#000">
          <path fill="#fff" d="M-2-2h22v18H-2z"/>
          <path fill-rule="evenodd" clip-rule="evenodd" d="M9.985 0h-2v6H0v2h7.985v6h2V8H18V6H9.985V0z"/>
        </mask>
        <path fill-rule="evenodd" clip-rule="evenodd" d="M9.985 0h-2v6H0v2h7.985v6h2V8H18V6H9.985V0z" fill="#F50100"/>
        <path d="M7.985 0v-1.5h-1.5V0h1.5zm2 0h1.5v-1.5h-1.5V0zm-2 6v1.5h1.5V6h-1.5zM0 6V4.5h-1.5V6H0zm0 2h-1.5v1.5H0V8zm7.985 0h1.5V6.5h-1.5V8zm0 6h-1.5v1.5h1.5V14zm2 0v1.5h1.5V14h-1.5zm0-6V6.5h-1.5V8h1.5zM18 8v1.5h1.5V8H18zm0-2h1.5V4.5H18V6zM9.985 6h-1.5v1.5h1.5V6zm-2-4.5h2v-3h-2v3zm1.5 4.5V0h-3v6h3zM0 7.5h7.985v-3H0v3zm1.5.5V6h-3v2h3zm6.485-1.5H0v3h7.985v-3zm1.5 7.5V8h-3v6h3zm.5-1.5h-2v3h2v-3zM8.485 8v6h3V8h-3zM18 6.5H9.985v3H18v-3zM16.5 6v2h3V6h-3zM9.985 7.5H18v-3H9.985v3zM8.485 0v6h3V0h-3z" fill="#F7FCFF" mask="url(#e)"/>
      </g>
    </g>
  </g>
</svg>
